X:71
T:Trip to Kew, A
M:6/8
L:1/8
B:Thompson's Compleat Collection of 200 Favourite Country Dances, vol. 3 (London, 1773)
Z:Transcribed and edited by Flynn Titford-Mock, 2007
Z:abc's:AK/Fiddler's Companion
K:D
ABA AFD | Bcd d3 | ABA AFD | EFE E3 | ABA AFD | def e2d | cBA EF^G | A3 [A,3A3] :|
|: ABA ecA | GFG F3 | fed dcB | cB^A B3 | dcB AGF | BAG FED | GAB Agf | edc d3 :|

